icon-svg/bulb-general-group.svg

<svg xmlns="http://www.w3.org/2000/svg" fill="#44739e" viewBox="0 0 24 24"><path d="M20 25c-1.712 0-3.279-.619-4.497-1.644C19.295 21.936 22 18.288 22 14c0-.977-.146-1.918-.407-2.811C24.687 11.913 27 14.688 27 18c0 3.859-3.141 7-7 7M5 14c0-3.859 3.141-7 7-7 1.712 0 3.279.619 4.497 1.644C12.705 10.064 10 13.712 10 18c0 .977.146 1.918.407 2.811C7.313 20.087 5 17.312 5 14m14 0c0 3.311-2.313 6.086-5.406 6.81C13.214 19.949 13 19 13 18c0-3.311 2.313-6.086 5.406-6.81.38.861.594 1.81.594 2.81m1-6c-.005 0-.009.001-.013.001C18.162 5.575 15.269 4 12 4 6.478 4 2 8.478 2 14s4.478 10 10 10c.005 0 .009-.001.013-.001C13.838 26.425 16.731 28 20 28c5.522 0 10-4.478 10-10S25.522 8 20 8"/></svg>

<?xml version="1.0" encoding="UTF-8"?>
<svg width="32px" height="32px" viewBox="0 0 32 32" fill="#44739e" version="1.1" xmlns="http://www.w3.org/2000/svg" xmlns:xlink="http://www.w3.org/1999/xlink">
            <path d="M20,25 C18.288,25 16.721,24.381 15.503,23.356 C19.295,21.936 22,18.288 22,14 C22,13.023 21.854,12.082 21.593,11.189 C24.687,11.913 27,14.688 27,18 C27,21.859 23.859,25 20,25 M5,14 C5,10.141 8.141,7 12,7 C13.712,7 15.279,7.619 16.497,8.644 C12.705,10.064 10,13.712 10,18 C10,18.977 10.146,19.918 10.407,20.811 C7.313,20.087 5,17.312 5,14 M19,14 C19,17.311 16.687,20.086 13.594,20.81 C13.214,19.949 13,19 13,18 C13,14.689 15.313,11.914 18.406,11.19 C18.786,12.051 19,13 19,14 M20,8 C19.995,8 19.991,8.001 19.987,8.001 C18.162,5.575 15.269,4 12,4 C6.478,4 2,8.478 2,14 C2,19.522 6.478,24 12,24 C12.005,24 12.009,23.999 12.013,23.999 C13.838,26.425 16.731,28 20,28 C25.522,28 30,23.522 30,18 C30,12.478 25.522,8 20,8"></path>
</svg>
